X:3
T: Little Fish
M:3/4
L:1/8
R:mazurka
K:G
B2BAGD | =F6 | EGBcAC | BGGFGA | B2BAGD | =F6 | EGBcAF |1 G2GFGA :|2 G2GABd |: gagfdb | cdcBGE | =FGABcA | BGGABd | gagfdb | cdcBGE | =FGAcA^F |1 G2GABd :|2 G6 |]



